X:1
T:Title
%%score { ( 1 3 ) | ( 2 4 5 ) }
L:1/8
M:4/4
K:Ab
V:1 treble nm="Grand Piano"
V:3 treble 
V:2 bass 
V:4 bass 
V:5 bass 
V:1
 z4 z2[Q:1/4=100] [CA]>[DB] | [Ec]2 [Ec]2 c<A B>B | [A,CA]2 [DFA]>[DF] [CE]2 c>d | e>e e>f e2 c2 | %4
[M:9/8] B2 B- B B2- BA>B |[M:4/4] c2 c2 c>e e>c | [Fd]2 [Fd]2 [DF]2 [FA]>[=EB] | c<c e>d c2 B2 | %8
 [CEA]6 z2 | [Ec]4 z/ A,3/2 E2 | z A3- A2 z2 | [CE]<[CE] [EA]>B c2 c2 | B2 B2 B4 | %13
 [Ec]4 z/ A,3/2 E2 | z d3- d2 z2 | c<c e>d c2 B2 |[M:3/4] [CEA]6 |] %17
V:2
 z4 z2 [A,,A,]>[A,,A,] | [A,,A,]2 [A,,A,]2 [E,A,E]<[E,A,C] [E,G,D]>[E,G,D] | %2
 A,,2 A,,>[A,,A,] [A,,A,]2[K:treble] [A,E]>[A,B,E] | %3
 [A,CA]>[A,CA] [A,CA]>[A,DA] [A,CA]2[K:bass] [A,E]2 | %4
[M:9/8] [G,B,E]2 [F,A,=D]- [F,A,D] [E,G,_D]2- [E,G,D][K:treble][A,C]>[A,D] | %5
[M:4/4] [A,E]2 [A,E]2 [A,E]>[A,CE] [A,CE]>[A,_G] | [D,A,]2 [D,A,]2 [D,A,]2 [D,A,]>[D,A,] | %7
 [E,A,E]<[E,A,E] [E,CE]>[E,B,E] [E,A,E]2 [E,DE]2 | A,,6 z2 | [A,,A,]2 [A,,A,]2 [A,,A,]<A,, C2 | %10
 z F3- F2 z2 | [A,,A,]<[A,,A,] [C,A,]>[E,G,E] [A,E]2 [A,E]2 | [G,B,E]2 [F,A,=D]2 [E,G,E]4 | %13
 [A,,A,]2 [A,,A,]2 [A,,A,]<A,, C2 | z F3- F2 z2 | [E,A,E]<[E,A,E] [E,CE]>[E,B,E] [E,A,E]2 [E,DE]2 | %16
[M:3/4] A,,6 |] %17
V:3
 x8 | x8 | x8 | x8 |[M:9/8] x9 |[M:4/4] x8 | x8 | x8 | x8 | z4 [CE]2 z2 | .F2 D2 D<D F>F | x8 | %12
 x8 | z4 [CE]2 z2 | .F2 A,2 A,<A, z2 | x8 |[M:3/4] x6 |] %17
V:4
 x8 | x8 | x6[K:treble] x2 | x6[K:bass] x2 |[M:9/8] x7[K:treble] x2 |[M:4/4] x8 | x8 | x8 | x8 | %9
 x8 | .D2 D,2 D,<D, [D,A,D]>[D,A,D] | x8 | x8 | x8 | [D,A,]2 z2 z4 | x8 |[M:3/4] x6 |] %17
V:5
 x8 | x8 | x6[K:treble] x2 | x6[K:bass] x2 |[M:9/8] x7[K:treble] x2 |[M:4/4] x8 | x8 | x8 | x8 | %9
 x8 | [D,A,]2 z2 z4 | x8 | x8 | x8 | .D2 D,2 D,<D, z2 | x8 |[M:3/4] x6 |] %17

